pk/intercom.svg

<svg viewBox="0 0 48 48" fill="none" xmlns="http://www.w3.org/2000/svg" height="1em" width="1em">
  <path d="M13 14C13 12.3431 14.3431 11 16 11H32C33.6569 11 35 12.3431 35 14V25L33 31V41C33 42.6569 31.6569 44 30 44H18C16.3431 44 15 42.6569 15 41V31L13 25V14Z" fill="#2F88FF" stroke="black" stroke-width="4"/>
  <path d="M19 11L19 4" stroke="black" stroke-width="4" stroke-linecap="round" stroke-linejoin="round"/>
  <path d="M28 11L28 7" stroke="black" stroke-width="4" stroke-linecap="round" stroke-linejoin="round"/>
  <path d="M28 19L20 19" stroke="white" stroke-width="4" stroke-linecap="round" stroke-linejoin="round"/>
  <path d="M26 26L22 26" stroke="white" stroke-width="4" stroke-linecap="round" stroke-linejoin="round"/>
</svg>

<svg viewBox="0 0 48 48" fill="none" xmlns="http://www.w3.org/2000/svg" height="1em" width="1em">
  <path d="M13 14a3 3 0 0 1 3-3h16a3 3 0 0 1 3 3v11l-2 6v10a3 3 0 0 1-3 3H18a3 3 0 0 1-3-3V31l-2-6V14Z" fill="#2F88FF" stroke="#000" stroke-width="4"/>
  <path d="M19 11V4m9 7V7" stroke="#000" stroke-width="4" stroke-linecap="round" stroke-linejoin="round"/>
  <path d="M28 19h-8m6 7h-4" stroke="#fff" stroke-width="4" stroke-linecap="round" stroke-linejoin="round"/>
</svg>
